X:43
T:Corner House (reel), The  
B:CRE1.120 (Teach ar an gCoirneal)
F:file ID: cre.1/043corn_h
S:Ned Stapleton
M:C
L:1/8
Q:180
R:reel
K:Am
AG|EAAG ABcd|(3e^fe dB cBAG|EGG^F G2AB|(3cBA (3BAG AGED|
EAAG ABcd|eaag egge|d2Bd e^fge|dBGB A2:|
(3B^cd|eaa2 age^f|g2a^f ged2|cBcd eged|Bde^f gedB|
eaa2 age^f|g2a^f ged2|cBcd eged|cABG A2:|

%%%

